X: 41477
T: Tyred Fiddle, The
R: hornpipe
M: 4/4
K: Cmajor
|:(3G^F=F|E>cG>c E>cG>c|F>cA>c F>cA>c|B>cd>e (3fed B>d|c>ed>c (3BcB (3G^F=F|
E>cG>c E>cG>c|F>cA>c F>cA>c|B>cd>e (3fed B>d|1 c2 G2 C2:|2 c2 G2 C>g||
|:^f>=f|e>cB>c G>cB>c|A>FE>F D2 d>c|B>G^F>G A>GE>G|(3ced (3cBA G2 (3g^f>=f|
e>cB>c G>cB>c|A>FE>F D2 d>c|B>G^F>G A>GE>G|1 c2 e2 c>g:|2 c2 G2 C2||

